img/project/logo/04.svg

<svg width="110" height="49" viewBox="0 0 110 49" fill="none" xmlns="http://www.w3.org/2000/svg">
<path d="M9.73438 17L5.62109 10.1562H4.23828V17H0.148438V0.195312H4.23828V6.89844H5.62109L9.46484 0.195312H13.9531L8.96094 8.31641L14.3633 17H9.73438ZM24.6641 15.7227C23.7422 16.7539 22.2812 17.2695 20.2812 17.2695C18.2812 17.2695 16.8203 16.7539 15.8984 15.7227C14.9844 14.6836 14.5273 13.0547 14.5273 10.8359C14.5273 8.60938 14.9844 6.98438 15.8984 5.96094C16.8203 4.9375 18.2812 4.42578 20.2812 4.42578C22.2812 4.42578 23.7422 4.9375 24.6641 5.96094C25.5859 6.98438 26.0469 8.60938 26.0469 10.8359C26.0469 13.0547 25.5859 14.6836 24.6641 15.7227ZM18.7812 13.4141C19.0625 13.8984 19.5586 14.1406 20.2695 14.1406C20.9805 14.1406 21.4805 13.8984 21.7695 13.4141C22.0586 12.9219 22.2031 12.0625 22.2031 10.8359C22.2031 9.60156 22.0586 8.74219 21.7695 8.25781C21.4805 7.76562 20.9805 7.51953 20.2695 7.51953C19.5586 7.51953 19.0625 7.76562 18.7812 8.25781C18.5 8.74219 18.3594 9.60156 18.3594 10.8359C18.3594 12.0625 18.5 12.9219 18.7812 13.4141ZM38.5625 4.66016H41.8555V17H38.2812V10.0391L35.0352 14.5977L31.7773 10.0859V17H28.25V4.66016H31.5312L35.0586 9.65234L38.5625 4.66016ZM44.6328 17V4.66016H55.4023V17H51.6406V7.8125H48.3945V17H44.6328ZM61.4141 17.2695C60.1328 17.2695 59.1523 16.9258 58.4727 16.2383C57.793 15.543 57.4531 14.582 57.4531 13.3555C57.4531 12.1836 57.8281 11.2695 58.5781 10.6133C59.3359 9.95703 60.418 9.62891 61.8242 9.62891H64.6836V9.21875C64.6836 8.60938 64.5078 8.17578 64.1562 7.91797C63.8047 7.65234 63.1875 7.51953 62.3047 7.51953C60.9609 7.51953 59.6719 7.69531 58.4375 8.04688L58.9883 4.90625C60.1602 4.61719 61.5117 4.47266 63.043 4.47266C66.6289 4.47266 68.4219 6.0625 68.4219 9.24219V17H65.1641L64.6836 15.7578C64.168 16.7656 63.0781 17.2695 61.4141 17.2695ZM62.5977 14.5039C63.332 14.5039 63.8633 14.3633 64.1914 14.082C64.5195 13.8008 64.6836 13.3008 64.6836 12.582V11.8672H62.5977C61.5742 11.8672 61.0586 12.3047 61.0508 13.1797C61.0586 14.0625 61.5742 14.5039 62.5977 14.5039ZM78.1719 4.66016H81.9453V17H78.1719V12.3242H74.832V17H71.0703V4.66016H74.832V9.27734H78.1719V4.66016ZM92.3398 4.66016H96.0078V17H92.3398V9.875L88.4023 17H84.7344V4.66016H88.4023V11.8203L92.3398 4.66016ZM103.309 4.66016H109.168V17H105.535V13.0391H103.977L101.938 17H97.9766L100.473 12.5117C99.082 11.8711 98.3867 10.6641 98.3867 8.89062C98.3867 6.07031 100.027 4.66016 103.309 4.66016ZM105.535 10.2617V7.63672H103.543C102.535 7.63672 102.031 8.07422 102.031 8.94922C102.031 9.82422 102.535 10.2617 103.543 10.2617H105.535ZM3.58203 42.582L0.582031 37.8359L3.58203 33.1016H6.75781L4.28516 37.8359L6.75781 42.582H3.58203ZM8.9375 42.582L5.91406 37.8359L8.9375 33.1016H12.0781L9.62891 37.8359L12.0781 42.582H8.9375ZM25.0859 44L24.0547 40.7305H18.2422L17.1875 44H13.0156L19.1797 27.1953H23.1875L29.3633 44H25.0859ZM19.2266 37.5898H23.0469L21.125 31.6367L19.2266 37.5898ZM30.7461 44V31.6602H41.5156V44H37.7539V34.8125H34.5078V44H30.7461ZM51.3711 31.4258C52.9102 31.4258 54.0352 31.9336 54.7461 32.9492C55.457 33.9648 55.8125 35.5938 55.8125 37.8359C55.8125 40.0703 55.457 41.7031 54.7461 42.7344C54.0352 43.7578 52.9102 44.2695 51.3711 44.2695C50.7461 44.2695 50.1797 44.1602 49.6719 43.9414C49.1719 43.7227 48.8164 43.5156 48.6055 43.3203C48.4023 43.1172 48.2344 42.9297 48.1016 42.7578V48.2422L44.3164 48.8047V31.6602H47.6211L48.1016 32.9375C48.2266 32.7422 48.3945 32.5508 48.6055 32.3633C48.8164 32.168 49.1719 31.9648 49.6719 31.7539C50.1797 31.5352 50.7461 31.4258 51.3711 31.4258ZM48.5352 40.4141C48.8242 40.8984 49.3242 41.1406 50.0352 41.1406C50.7461 41.1406 51.25 40.8984 51.5469 40.4141C51.8438 39.9219 51.9922 39.0625 51.9922 37.8359C51.9922 36.6016 51.8438 35.7422 51.5469 35.2578C51.25 34.7656 50.7461 34.5195 50.0352 34.5195C49.3242 34.5195 48.8242 34.7656 48.5352 35.2578C48.2461 35.7422 48.1016 36.6016 48.1016 37.8359C48.1016 39.0625 48.2461 39.9219 48.5352 40.4141ZM63.9805 44.2695C61.7227 44.2695 60.0742 43.7383 59.0352 42.6758C57.9961 41.6055 57.4766 40.0078 57.4766 37.8828C57.4766 35.7734 57.9648 34.1719 58.9414 33.0781C59.9258 31.9766 61.3711 31.4258 63.2773 31.4258C66.9883 31.4258 68.8438 33.5469 68.8438 37.7891V38.8906H61.1914C61.2539 39.6719 61.5273 40.2539 62.0117 40.6367C62.5039 41.0195 63.2773 41.2109 64.332 41.2109C65.0195 41.2109 65.7344 41.1445 66.4766 41.0117C67.2266 40.8789 67.832 40.7305 68.293 40.5664L67.7656 43.707C66.5859 44.082 65.3242 44.2695 63.9805 44.2695ZM61.1914 36.582H65.4688C65.3906 34.9961 64.6836 34.2031 63.3477 34.2031C62.707 34.2031 62.2031 34.4062 61.8359 34.8125C61.4688 35.2109 61.2539 35.8008 61.1914 36.582ZM72.3594 31.6602H81.7461V44H78.0664V34.8125H75.6641L75.5234 38.4102C75.3672 42.3008 74.0156 44.2422 71.4688 44.2344C70.8594 44.2344 70.4336 44.1641 70.1914 44.0234L69.6641 40.9531C69.875 41.0156 70.1406 41.0469 70.4609 41.0469C70.9766 41.0469 71.3633 40.8398 71.6211 40.4258C71.8867 40.0117 72.043 39.2812 72.0898 38.2344L72.3594 31.6602ZM84.5352 44V31.6602H88.25V35.1406H90.5586C92.1914 35.1406 93.418 35.5273 94.2383 36.3008C95.0664 37.0664 95.4805 38.1523 95.4805 39.5586C95.4805 40.9805 95.0664 42.0781 94.2383 42.8516C93.418 43.6172 92.1914 44 90.5586 44H84.5352ZM88.25 41.0469H90.2656C90.7578 41.0469 91.1328 40.9219 91.3906 40.6719C91.6484 40.4141 91.7773 40.043 91.7773 39.5586C91.7773 38.582 91.2734 38.0938 90.2656 38.0938H88.25V41.0469ZM100.062 42.582H96.8984L99.3711 37.8359L96.8984 33.1016H100.062L103.062 37.8359L100.062 42.582ZM105.418 42.582H102.254L104.691 37.8359L102.254 33.1016H105.418L108.418 37.8359L105.418 42.582Z" fill="white"/>
</svg>

<svg width="110" height="49" fill="none" xmlns="http://www.w3.org/2000/svg"><path d="M9.734 17l-4.113-6.844H4.238V17H.148V.195h4.09v6.703h1.383L9.465.195h4.488L8.961 8.316 14.363 17H9.734zm14.93-1.277c-.922 1.03-2.383 1.546-4.383 1.546s-3.46-.515-4.383-1.546c-.914-1.04-1.37-2.668-1.37-4.887 0-2.227.456-3.852 1.37-4.875.922-1.024 2.383-1.535 4.383-1.535s3.461.511 4.383 1.535c.922 1.023 1.383 2.648 1.383 4.875 0 2.219-.461 3.848-1.383 4.887zm-5.883-2.309c.282.484.778.727 1.489.727.71 0 1.21-.243 1.5-.727.289-.492.433-1.351.433-2.578 0-1.234-.144-2.094-.433-2.578-.29-.492-.79-.738-1.5-.738-.711 0-1.207.246-1.489.738-.281.484-.422 1.344-.422 2.578 0 1.226.141 2.086.422 2.578zM38.563 4.66h3.292V17h-3.574v-6.96l-3.246 4.558-3.258-4.512V17H28.25V4.66h3.281l3.528 4.992 3.504-4.992zM44.633 17V4.66h10.77V17H51.64V7.812h-3.246V17h-3.762zm16.781.27c-1.281 0-2.262-.344-2.941-1.032-.68-.695-1.02-1.656-1.02-2.883 0-1.171.375-2.085 1.125-2.742.758-.656 1.84-.984 3.246-.984h2.86v-.41c0-.61-.176-1.043-.528-1.301-.351-.266-.969-.398-1.851-.398a14.05 14.05 0 00-3.867.527l.55-3.14c1.172-.29 2.524-.434 4.055-.434 3.586 0 5.379 1.59 5.379 4.77V17h-3.258l-.48-1.242c-.516 1.008-1.606 1.512-3.27 1.512zm1.184-2.766c.734 0 1.265-.14 1.593-.422.328-.281.493-.781.493-1.5v-.715h-2.086c-1.024 0-1.54.438-1.547 1.313.008.883.523 1.324 1.547 1.324zM78.172 4.66h3.773V17h-3.773v-4.676h-3.34V17H71.07V4.66h3.762v4.617h3.34V4.66zm14.168 0h3.668V17H92.34V9.875L88.402 17h-3.668V4.66h3.668v7.16l3.938-7.16zm10.969 0h5.859V17h-3.633v-3.96h-1.558L101.938 17h-3.961l2.496-4.488c-1.391-.64-2.086-1.848-2.086-3.621 0-2.82 1.64-4.23 4.922-4.23zm2.226 5.602V7.637h-1.992c-1.008 0-1.512.437-1.512 1.312s.504 1.313 1.512 1.313h1.992zM3.582 42.582l-3-4.746 3-4.734h3.176l-2.473 4.734 2.473 4.746H3.582zm5.356 0l-3.024-4.746 3.024-4.734h3.14l-2.45 4.734 2.45 4.746h-3.14zM25.085 44l-1.031-3.27h-5.813L17.187 44h-4.171l6.164-16.805h4.008L29.363 44h-4.277zm-5.86-6.41h3.82l-1.921-5.953-1.898 5.953zM30.747 44V31.66h10.77V44h-3.762v-9.188h-3.246V44h-3.762zm20.625-12.574c1.54 0 2.664.508 3.375 1.523.711 1.016 1.066 2.645 1.066 4.887 0 2.234-.355 3.867-1.066 4.898-.71 1.024-1.836 1.535-3.375 1.535a4.256 4.256 0 01-1.7-.328c-.5-.218-.855-.425-1.066-.62a5.99 5.99 0 01-.503-.563v5.484l-3.786.563V31.66h3.305l.48 1.277c.126-.195.294-.386.505-.574.21-.195.566-.398 1.066-.61a4.253 4.253 0 011.7-.327zm-2.836 8.988c.29.484.79.727 1.5.727.711 0 1.215-.243 1.512-.727.297-.492.445-1.352.445-2.578 0-1.234-.148-2.094-.445-2.578-.297-.492-.8-.739-1.512-.739-.71 0-1.21.247-1.5.739-.289.484-.433 1.344-.433 2.578 0 1.227.144 2.086.433 2.578zm15.446 3.855c-2.258 0-3.907-.53-4.946-1.593-1.039-1.07-1.558-2.668-1.558-4.793 0-2.11.488-3.711 1.464-4.805.985-1.101 2.43-1.652 4.336-1.652 3.711 0 5.567 2.12 5.567 6.363v1.102H61.19c.063.78.336 1.363.82 1.746.493.383 1.266.574 2.321.574.688 0 1.402-.066 2.145-.2.75-.132 1.355-.28 1.816-.445l-.527 3.141a12.43 12.43 0 01-3.786.563zm-2.79-7.687h4.278c-.078-1.586-.785-2.379-2.121-2.379-.641 0-1.145.203-1.512.61-.367.398-.582.988-.645 1.769zM72.36 31.66h9.387V44h-3.68v-9.188h-2.402l-.14 3.598c-.157 3.89-1.508 5.832-4.055 5.824-.61 0-1.035-.07-1.278-.21l-.527-3.07c.211.062.477.093.797.093.516 0 .902-.207 1.16-.621.266-.414.422-1.145.469-2.192l.27-6.574zM84.535 44V31.66h3.715v3.48h2.309c1.632 0 2.859.387 3.68 1.16.827.766 1.242 1.852 1.242 3.259 0 1.422-.415 2.52-1.243 3.293-.82.765-2.047 1.148-3.68 1.148h-6.023zm3.715-2.953h2.016c.492 0 .867-.125 1.125-.375.257-.258.386-.629.386-1.113 0-.977-.504-1.465-1.511-1.465H88.25v2.953zm11.812 1.535h-3.164l2.473-4.746-2.473-4.734h3.164l3 4.734-3 4.746zm5.356 0h-3.164l2.437-4.746-2.437-4.734h3.164l3 4.734-3 4.746z" fill="#fff"/></svg>
